src/lib/packages/icons/src/assets/line/golf-ball.svg

<svg xmlns="http://www.w3.org/2000/svg" width="24" height="24" fill="none"><path fill="currentColor" d="M18.75 9c0-3.72-3.03-6.75-6.75-6.75S5.25 5.28 5.25 9c0 2.47 1.33 4.62 3.32 5.8-.31.47-.25 1.08.14 1.46l1.09 1.09.42 3.39c.07.58.57 1.01 1.14 1.01h1.3c.57 0 1.07-.43 1.14-1.01l.42-3.39 1.09-1.09c.39-.38.45-.99.14-1.45 1.98-1.19 3.32-3.34 3.32-5.81h-.02Zm-5.68 7.37c-.18.18-.3.42-.33.67l-.4 3.21h-.68l-.4-3.21c-.03-.25-.15-.49-.33-.67l-.91-.92c.63.19 1.29.3 1.98.3s1.35-.1 1.98-.3l-.91.92ZM12 14.25a5.25 5.25 0 1 1 0-10.5 5.25 5.25 0 1 1 0 10.5ZM10.25 10c0 .41-.34.75-.75.75-.96 0-1.75-.79-1.75-1.75 0-.41.34-.75.75-.75s.75.34.75.75c0 .14.11.25.25.25.41 0 .75.34.75.75Zm2.5 2.5c0 .41-.34.75-.75.75-.96 0-1.75-.79-1.75-1.75 0-.41.34-.75.75-.75s.75.34.75.75c0 .14.11.25.25.25.41 0 .75.34.75.75Zm.5-3c0 .41-.34.75-.75.75-.96 0-1.75-.79-1.75-1.75 0-.41.34-.75.75-.75s.75.34.75.75c0 .14.11.25.25.25.41 0 .75.34.75.75Z"/></svg>

<svg width="24" height="24" viewBox="0 0 24 24" fill="none" xmlns="http://www.w3.org/2000/svg">
<path d="M18.75 9C18.75 5.28 15.72 2.25 12 2.25C8.28 2.25 5.25 5.28 5.25 9C5.25 11.47 6.58001 13.62 8.57001 14.8C8.26001 15.27 8.32002 15.88 8.71002 16.26L9.79999 17.35L10.22 20.74C10.29 21.32 10.79 21.75 11.36 21.75H12.66C13.23 21.75 13.73 21.32 13.8 20.74L14.22 17.35L15.31 16.26C15.7 15.88 15.76 15.27 15.45 14.81C17.43 13.62 18.77 11.47 18.77 9H18.75ZM13.07 16.37C12.89 16.55 12.77 16.79 12.74 17.04L12.34 20.25H11.66L11.26 17.04C11.23 16.79 11.11 16.55 10.93 16.37L10.02 15.45C10.65 15.64 11.31 15.75 12 15.75C12.69 15.75 13.35 15.65 13.98 15.45L13.07 16.37ZM12 14.25C9.1 14.25 6.75 11.9 6.75 9C6.75 6.1 9.1 3.75 12 3.75C14.9 3.75 17.25 6.1 17.25 9C17.25 11.9 14.9 14.25 12 14.25ZM10.25 10C10.25 10.41 9.91 10.75 9.5 10.75C8.54 10.75 7.75 9.96 7.75 9C7.75 8.59 8.09 8.25 8.5 8.25C8.91 8.25 9.25 8.59 9.25 9C9.25 9.14 9.36 9.25 9.5 9.25C9.91 9.25 10.25 9.59 10.25 10ZM12.75 12.5C12.75 12.91 12.41 13.25 12 13.25C11.04 13.25 10.25 12.46 10.25 11.5C10.25 11.09 10.59 10.75 11 10.75C11.41 10.75 11.75 11.09 11.75 11.5C11.75 11.64 11.86 11.75 12 11.75C12.41 11.75 12.75 12.09 12.75 12.5ZM13.25 9.5C13.25 9.91 12.91 10.25 12.5 10.25C11.54 10.25 10.75 9.46 10.75 8.5C10.75 8.09 11.09 7.75 11.5 7.75C11.91 7.75 12.25 8.09 12.25 8.5C12.25 8.64 12.36 8.75 12.5 8.75C12.91 8.75 13.25 9.09 13.25 9.5Z" fill="currentColor"/>
</svg>
